libs/ui/packages/crypto-icons/src/svg/KCS.svg

<svg width="24" height="24" viewBox="0 0 24 24" fill="none">
<path fill-rule="evenodd" clip-rule="evenodd" d="M9.77969 11.9996L13.6602 15.9971L16.1089 13.4749C16.2102 13.3692 16.3317 13.2852 16.4663 13.2278C16.6009 13.1703 16.7456 13.1407 16.8919 13.1407C17.0382 13.1407 17.183 13.1703 17.3176 13.2278C17.4522 13.2852 17.5737 13.3692 17.6749 13.4749C17.8832 13.6919 17.9995 13.9811 17.9995 14.2819C17.9995 14.5827 17.8832 14.8718 17.6749 15.0889L14.4432 18.4189C14.3414 18.5236 14.2197 18.6068 14.0852 18.6636C13.9507 18.7204 13.8062 18.7497 13.6602 18.7497C13.5142 18.7497 13.3697 18.7204 13.2352 18.6636C13.1007 18.6068 12.979 18.5236 12.8772 18.4189L8.2152 13.6144V16.4704C8.2152 17.0974 7.7157 17.6119 7.10745 17.6119C6.49545 17.6119 5.99969 17.1004 5.99969 16.4704V7.52962C5.99969 6.89962 6.49545 6.38812 7.10745 6.38812C7.7187 6.38812 8.2152 6.89962 8.2152 7.52962V10.3856L12.8772 5.58112C12.979 5.47643 13.1007 5.39322 13.2352 5.33639C13.3697 5.27957 13.5142 5.25029 13.6602 5.25029C13.8062 5.25029 13.9507 5.27957 14.0852 5.33639C14.2197 5.39322 14.3414 5.47643 14.4432 5.58112L17.6757 8.91112C17.884 9.12816 18.0003 9.41732 18.0003 9.71812C18.0003 10.0189 17.884 10.3081 17.6757 10.5251C17.5744 10.631 17.4528 10.7152 17.3181 10.7728C17.1834 10.8304 17.0384 10.86 16.8919 10.86C16.7455 10.86 16.6005 10.8304 16.4658 10.7728C16.3311 10.7152 16.2094 10.631 16.1082 10.5251L13.6602 8.00212L9.77969 11.9996ZM13.6617 10.8574C14.2737 10.8574 14.7702 11.3689 14.7702 11.9996C14.7702 12.6304 14.2737 13.1419 13.6617 13.1419C13.0497 13.1419 12.5532 12.6304 12.5532 11.9996C12.5532 11.3689 13.0497 10.8574 13.6617 10.8574Z" fill="#0093DD"/>
</svg>

<svg width="24" height="24" viewBox="0 0 24 24" fill="none"><path fill="#0093dd" fill-rule="evenodd" d="m9.78 12 3.88 3.997 2.449-2.522a1.084 1.084 0 0 1 1.566 0 1.165 1.165 0 0 1 0 1.614l-3.232 3.33a1.09 1.09 0 0 1-1.566 0l-4.662-4.805v2.856c0 .627-.5 1.142-1.108 1.142C6.495 17.612 6 17.1 6 16.47V7.53c0-.63.495-1.142 1.107-1.142S8.215 6.9 8.215 7.53v2.856l4.662-4.805a1.09 1.09 0 0 1 1.566 0l3.233 3.33a1.165 1.165 0 0 1 0 1.614 1.085 1.085 0 0 1-1.568 0L13.66 8.002zm3.882-1.143c.612 0 1.108.512 1.108 1.143 0 .63-.496 1.142-1.108 1.142S12.553 12.63 12.553 12c0-.631.497-1.143 1.109-1.143" clip-rule="evenodd"/></svg>
